build/category/BookSolid.svg

<svg xmlns="http://www.w3.org/2000/svg" fill="none" viewBox="0 0 24 24" focusable="false"><path d="M0 0H24V24H0z"/><path fill="#74767B" fill-rule="evenodd" d="M5 7C5 5.34314 6.34315 4 8 4L16 4C17.6569 4 19 5.34315 19 7L19 17C19 18.6568 17.6569 20 16 20L8 20C6.34315 20 5 18.6568 5 17L5 7ZM6.30145 17.0709C6.33862 17.9769 7.08487 18.7 8 18.7L16 18.7C16.9389 18.7 17.7 17.9389 17.7 17L17.7 14.9216C17.2168 15.2545 16.6312 15.4494 16 15.4494L7.85585 15.4494C6.99949 15.4494 6.30527 16.1436 6.30527 17C6.30527 17.024 6.30398 17.0476 6.30145 17.0709ZM8.6451 9.61702L15.3548 9.61702C15.6179 9.70022 15.8086 9.94628 15.8086 10.2369C15.8086 10.5959 15.5176 10.8869 15.1586 10.8869L8.84131 10.8869C8.48232 10.8869 8.19131 10.5959 8.19131 10.2369C8.19131 9.94628 8.38201 9.70022 8.6451 9.61702ZM8.84131 6.99435C8.48232 6.99435 8.19131 7.28536 8.19131 7.64435C8.19131 8.00333 8.48232 8.29435 8.84131 8.29435L15.1586 8.29435C15.5176 8.29435 15.8086 8.00333 15.8086 7.64435C15.8086 7.28536 15.5176 6.99435 15.1586 6.99435L8.84131 6.99435Z"/></svg>

<svg xmlns="http://www.w3.org/2000/svg" fill="none" viewBox="0 0 24 24" focusable="false"><path fill="#74767B" fill-rule="evenodd" d="M5 7c0-1.66 1.34-3 3-3h8c1.65 0 3 1.34 3 3v10c0 1.65-1.35 3-3 3H8c-1.66 0-3-1.35-3-3zm1.3 10.07c.03.9.78 1.63 1.7 1.63h8c.93 0 1.7-.77 1.7-1.7v-2.08c-.49.33-1.07.52-1.7.52H7.85c-.86 0-1.55.7-1.55 1.56zm2.34-7.46h6.71c.26.09.45.33.45.62 0 .36-.29.65-.65.65H8.84c-.36 0-.65-.29-.65-.65 0-.29.19-.53.45-.62m.2-2.62c-.36 0-.65.29-.65.65s.29.65.65.65h6.31c.36 0 .65-.29.65-.65s-.29-.65-.65-.65z"/></svg>
